X:298
T:Mrs Crawford
B:Jerry Holland's Collection
Z:Nigel Gatherer <gatherer@argonet.co.uk>
M:4/4
L:1/8
K:D
A2 A>A B/<A/G/<F/ AB/c/|d>e f>e d<BB<d|A2 A>A B/<A/G/<F/ d>A|
B/A/G/<F/ A/>G/F/<E/ D4::a>b af dA df|1 e>f g/<f/e/<d/ B2 BA|
a>b af dA df|ef/g/ a/<g/f/<e d4:|2 e>f g/<f/e/<d/ B2 d2|
A>B AF Ad B/A/G/<F/|E/>D/E/<F/  A/>G/F/<E/ D4|]
<end>
<start>
